kp-team/img/logo.svg

<svg width="135" height="43" viewBox="0 0 135 43" fill="none" xmlns="http://www.w3.org/2000/svg">
<g id="Group Copy">
<path id="TSEKH" fill-rule="evenodd" clip-rule="evenodd" d="M15.9855 42.5231H7.55533V21.4253H0V14.9967H23.5408V21.4253H15.9855V42.5231ZM25.9221 34.1871H33.6763C33.9944 35.8467 36.0025 36.8005 38.3884 36.8005C40.9135 36.8005 42.4643 35.8086 42.4643 34.4542C42.4643 33.157 41.3509 32.6038 38.1299 32.0506L35.247 31.5547C29.5407 30.5818 26.4192 27.8158 26.4192 23.5429C26.4192 18.0109 31.3898 14.52 38.2095 14.52C45.8841 14.52 50.1787 17.9346 50.2185 23.3712H42.4643C42.4047 21.6925 40.6153 20.7196 38.3089 20.7196C35.9628 20.7196 34.7698 21.7116 34.7698 22.9515C34.7698 24.1914 36.0025 24.7828 38.8656 25.2787L41.7486 25.7747C47.9121 26.843 50.8149 29.2656 50.8149 33.7293C50.8149 39.3948 46.2022 43.0001 38.289 43.0001C30.853 43.0001 25.942 39.8145 25.9221 34.1871ZM74.4903 36.0945V42.5231H54.25V14.9967H74.4903V21.4253H62.6802V25.8699H73.7547V31.669H62.6802V36.0945H74.4903ZM87.1509 42.5231H78.7207V14.9967H87.1509V26.6711H87.3099L96.1775 14.9967H105.025L95.581 27.2243L105.463 42.5231H95.6606L89.3976 32.4129L87.1509 35.3124V42.5231ZM134.705 42.5231H126.275V31.8788H116.175V42.5231H107.745V14.9967H116.175V25.4503H126.275V14.9967H134.705V42.5231Z" fill="#333333"/>
<path id="Rectangle" d="M107.669 0H134.785V9.0155H107.669V0Z" fill="#3454F5"/>
</g>
</svg>

<svg width="135" height="43" fill="none" xmlns="http://www.w3.org/2000/svg"><path fill-rule="evenodd" clip-rule="evenodd" d="M15.986 42.523h-8.43V21.425H0v-6.428h23.54v6.428h-7.554v21.098zm9.936-8.336h7.754c.318 1.66 2.326 2.614 4.712 2.614 2.526 0 4.076-.992 4.076-2.347 0-1.297-1.113-1.85-4.334-2.403l-2.883-.496c-5.706-.973-8.828-3.74-8.828-8.012 0-5.532 4.97-9.023 11.79-9.023 7.675 0 11.97 3.415 12.01 8.851h-7.755c-.06-1.678-1.849-2.651-4.155-2.651-2.346 0-3.54.992-3.54 2.232 0 1.24 1.233 1.83 4.097 2.327l2.883.496c6.163 1.068 9.066 3.49 9.066 7.954 0 5.666-4.613 9.271-12.526 9.271-7.436 0-12.347-3.185-12.367-8.813zm48.568 1.907v6.43H54.25V14.996h20.24v6.428H62.68v4.445h11.075v5.799H62.68v4.425h11.81zm12.66 6.43h-8.43V14.996h8.43V26.67h.16l8.867-11.674h8.848l-9.444 12.227 9.882 15.3h-9.802l-6.263-10.111-2.247 2.9v7.21zm47.555 0h-8.43V31.878h-10.1v10.644h-8.43V14.997h8.43V25.45h10.1V14.997h8.43v27.526z" fill="#333"/><path d="M107.669 0h27.116v9.015h-27.116V0z" fill="#3454F5"/></svg>
